Pods/ProtonCore-UIFoundations/libraries/UIFoundations/Sources/Assets.xcassets/Images/IconSet/ic-calendar-checkmark.imageset/ic-calendar-checkmark.svg

<svg width="24" height="24" viewBox="0 0 24 24" fill="none" xmlns="http://www.w3.org/2000/svg">
<path fill-rule="evenodd" clip-rule="evenodd" d="M4.5 3.25606V2.25C4.5 1.83579 4.83579 1.5 5.25 1.5C5.66421 1.5 6 1.83579 6 2.25V3H18V2.25C18 1.83579 18.3358 1.5 18.75 1.5C19.1642 1.5 19.5 1.83579 19.5 2.25V3.25606C21.2478 3.87381 22.5 5.54067 22.5 7.5V18C22.5 20.4853 20.4853 22.5 18 22.5H6C3.51472 22.5 1.5 20.4853 1.5 18V7.5C1.5 5.54067 2.75221 3.87381 4.5 3.25606ZM18 4.5H6C4.34315 4.5 3 5.84315 3 7.5L21 7.5C21 5.84315 19.6569 4.5 18 4.5ZM3 18V9H21V18C21 19.6569 19.6569 21 18 21H6C4.34315 21 3 19.6569 3 18ZM17.0303 12.5303C17.3232 12.2374 17.3232 11.7626 17.0303 11.4697C16.7374 11.1768 16.2626 11.1768 15.9697 11.4697L11.25 16.1893L8.78033 13.7197C8.48744 13.4268 8.01256 13.4268 7.71967 13.7197C7.42678 14.0126 7.42678 14.4874 7.71967 14.7803L10.5075 17.5682C10.9176 17.9782 11.5824 17.9782 11.9925 17.5682L17.0303 12.5303Z" fill="#0C0C14"/>
</svg>

<svg xmlns="http://www.w3.org/2000/svg" width="24" height="24" viewBox="0 0 24 24">
  <g class="ic-calendar-checkmark">
    <path fill-rule="evenodd" d="M4.5 3.256V2.25a.75.75 0 0 1 1.5 0V3h12v-.75a.75.75 0 0 1 1.5 0v1.006c1.748.618 3 2.285 3 4.244V18a4.5 4.5 0 0 1-4.5 4.5H6A4.5 4.5 0 0 1 1.5 18V7.5a4.502 4.502 0 0 1 3-4.244ZM18 4.5H6a3 3 0 0 0-3 3h18a3 3 0 0 0-3-3ZM3 18V9h18v9a3 3 0 0 1-3 3H6a3 3 0 0 1-3-3Zm14.03-5.47a.75.75 0 1 0-1.06-1.06l-4.72 4.72-2.47-2.47a.75.75 0 0 0-1.06 1.06l2.788 2.788c.41.41 1.074.41 1.485 0l5.037-5.038Z" class="Icon"/>
  </g>
</svg>
